assets/images/footer/brands/tailgrids.svg

<svg fill="none" height="96" viewBox="0 0 333 96" width="333" xmlns="http://www.w3.org/2000/svg"><g fill="#fff"><path d="m77.9039 45.4778c-.0295-.2993-.1682-.5773-.3897-.7809-.2215-.2037-.5103-.3187-.8113-.3231h-29.9285c-.8127.0198-1.6061.2518-2.3014.6728-.6952.421-1.2682 1.0165-1.6619 1.7272-.3645.6356-.5562 1.3554-.5562 2.088 0 .7325.1917 1.4524.5562 2.088.1041.1999.2585.3692.448.4912.1896.1221.4076.1927.6328.2048h32.8831c.301-.0045.5898-.1195.8113-.3231s.3602-.4816.3897-.7809c0-.936 0-1.728 0-2.4s-.0001-1.752-.0721-2.664z" opacity=".88"/><path d="m51.4088 51.5499h-7.5901c-.2152-.0154-.4238-.0823-.6078-.1951-.1839-.1127-.338-.2681-.4492-.4529l13.9556 24.696c.1068.1849.2611.338.4469.4435.1857.1054.3962.1595.6098.1565.1352.0228.2733.0228.4085 0 1.5871-.571 3.1222-1.2776 4.5878-2.112.1374-.0771.2577-.1809.3542-.3054.0965-.1244.167-.267.2073-.4192s.0498-.3109.0276-.4668-.0756-.3057-.1569-.4406z" opacity=".72"/><path d="m57.691 76.4139c.0118.0001.0237.0002.0355 0 .1271.0229.2573.0229.3844 0l.7685-.312.6967-.288c1.0625-.4409 2.0973-.9458 3.0986-1.512 4.6831-2.6359 8.5743-6.4768 11.2692-11.1236s4.0953-9.9299 4.0554-15.3004c0-.888-.0481-1.584-.1202-2.4-.0238-.2972-.1574-.575-.375-.7791s-.5036-.3199-.802-.3249h-4.8039c-.1685.0019-.3348.0392-.4879.1095s-.2896.172-.4008.2985c-.112.1216-.1959.2664-.2457.424s-.0643.3242-.0425.488v2.4c-.0061 3.8297-.9774 7.5961-2.8245 10.9518-1.8471 3.3556-4.5106 6.1923-7.7443 8.2482-.1278.0821-.2521.1712-.377.2606-.0711.0509-.1425.102-.2147.152-.1187.0237-.2342.0631-.3432.1175-3.425 1.9473-7.3004 2.965-11.241 2.952-6.048-.0127-11.8447-2.4189-16.1213-6.692s-6.6848-10.065-6.6975-16.108c.0127-6.043 2.4209-11.8349 6.6975-16.108s10.0733-6.6793 16.1213-6.692c3.9388.0013 7.8105 1.018 11.241 2.952.1793.1137.3882.1722.6005.168h.2642c.1647-.0363.3201-.1062.4565-.2053.1364-.0992.251-.2253.3363-.3707l2.402-4.176c.1588-.2777.2025-.6066.1217-.9161s-.2799-.5751-.5542-.7399c-4.5212-2.5528-9.6268-3.8923-14.82-3.888-7.9591.0127-15.5886 3.1775-21.2166 8.8008-5.628 5.6234-8.7953 13.2466-8.808 21.1992.0127 7.9526 3.18 15.5758 8.808 21.1992 5.628 5.6233 13.2575 8.7881 21.2166 8.8008 3.3.0027 6.5646-.5371 9.6664-1.5861z"/><path d="m115.574 33.9529v33.9686h-5.973v-33.9686h-9.101v-5.6145h24.15v5.6145z"/><path d="m145.082 42.9514h5.794v24.9701h-5.794v-2.6149c-2.375 2.2218-4.931 3.3328-7.665 3.3328-3.453 0-6.307-1.2477-8.563-3.743-2.239-2.5466-3.358-5.7255-3.358-9.5369 0-3.7429 1.119-6.8621 3.358-9.3574s5.042-3.7429 8.409-3.7429c2.906 0 5.512 1.1963 7.819 3.5891zm-13.69 12.4081c0 2.3928.641 4.3412 1.923 5.8452 1.316 1.5211 2.974 2.2817 4.974 2.2817 2.136 0 3.862-.7349 5.178-2.2048 1.316-1.5211 1.974-3.4524 1.974-5.7939s-.658-4.2728-1.974-5.7939c-1.316-1.4869-3.025-2.2304-5.127-2.2304-1.983 0-3.641.752-4.974 2.2561-1.316 1.5211-1.974 3.4011-1.974 5.64z"/><path d="m163.925 42.9514v24.9701h-5.768v-24.9701zm-6.64-10.3829c0-1.0084.368-1.88 1.103-2.615.735-.7349 1.615-1.1023 2.64-1.1023 1.043 0 1.932.3674 2.667 1.1023.734.7179 1.102 1.5981 1.102 2.6406 0 1.0426-.368 1.9313-1.102 2.6662-.718.735-1.598 1.1024-2.641 1.1024s-1.931-.3674-2.666-1.1024c-.735-.7349-1.103-1.6322-1.103-2.6918z"/><path d="m177 24.6211v43.3004h-5.768v-43.3004z"/><path d="m210.931 47.8021h16.614v1.3359c0 3.0384-.356 5.7276-1.067 8.0675-.695 2.1653-1.867 4.1909-3.516 6.0768-3.732 4.2259-8.48 6.3388-14.244 6.3388-5.625 0-10.442-2.0431-14.453-6.1292-4.01-4.1036-6.015-9.028-6.015-14.773 0-5.8673 2.04-10.844 6.12-14.9302 4.079-4.1036 9.044-6.1554 14.895-6.1554 3.142 0 6.076.6461 8.802 1.9383 2.604 1.2922 5.164 3.3877 7.681 6.2864l-4.322 4.1647c-3.299-4.4179-7.318-6.6269-12.057-6.6269-4.253 0-7.821 1.4756-10.703 4.4267-2.882 2.8987-4.322 6.5308-4.322 10.8964 0 4.5052 1.605 8.2159 4.817 11.1321 3.003 2.7066 6.258 4.06 9.765 4.06 2.986 0 5.668-1.0128 8.047-3.0385 2.378-2.043 3.706-4.4877 3.984-7.3341h-10.026z"/><path d="m234.081 43.3493h5.86v2.2788c1.076-1.1351 2.031-1.9121 2.864-2.3312.851-.4366 1.858-.6549 3.021-.6549 1.545 0 3.159.5065 4.843 1.5193l-2.682 5.3958c-1.111-.8033-2.196-1.2049-3.255-1.2049-3.194 0-4.791 2.4272-4.791 7.2817v13.2276h-5.86z"/><path d="m260.721 43.3493v25.5122h-5.859v-25.5122zm-6.744-10.6083c0-1.0303.373-1.9208 1.119-2.6717.747-.7509 1.641-1.1263 2.682-1.1263 1.059 0 1.962.3754 2.709 1.1263.746.7334 1.119 1.6327 1.119 2.6979s-.373 1.9732-1.119 2.7241c-.729.7509-1.624 1.1263-2.683 1.1263s-1.961-.3754-2.708-1.1263c-.746-.7509-1.119-1.6676-1.119-2.7503z"/><path d="m286.84 24.6211h5.885v44.2404h-5.885v-2.6717c-2.309 2.2701-4.922 3.4051-7.838 3.4051-3.473 0-6.354-1.2747-8.646-3.8242-2.274-2.6019-3.411-5.8498-3.411-9.7439 0-3.8068 1.137-6.9849 3.411-9.5343 2.257-2.567 5.095-3.8505 8.515-3.8505 2.969 0 5.625 1.2224 7.969 3.6671zm-13.906 31.4057c0 2.4447.651 4.4354 1.953 5.9721 1.337 1.5541 3.021 2.3312 5.052 2.3312 2.17 0 3.923-.7509 5.26-2.2527 1.337-1.5541 2.005-3.5273 2.005-5.9196 0-2.3924-.668-4.3656-2.005-5.9197-1.337-1.5192-3.073-2.2788-5.208-2.2788-2.014 0-3.698.7683-5.052 2.305-1.337 1.5541-2.005 3.475-2.005 5.7625z"/><path d="m314.859 47.6973-4.843 2.5932c-.764-1.5716-1.71-2.3574-2.839-2.3574-.538 0-.998.1833-1.38.55-.382.3493-.573.8033-.573 1.3621 0 .9779 1.129 1.947 3.386 2.9074 3.107 1.3446 5.199 2.5844 6.275 3.7195 1.077 1.135 1.615 2.663 1.615 4.5838 0 2.4622-.903 4.5227-2.708 6.1816-1.754 1.5716-3.872 2.3574-6.354 2.3574-4.253 0-7.265-2.0867-9.036-6.2602l5-2.3312c.694 1.2224 1.224 1.9994 1.588 2.3312.712.6636 1.563.9954 2.552.9954 1.979 0 2.969-.9081 2.969-2.7241 0-1.0478-.764-2.0257-2.292-2.9337-.59-.2968-1.18-.585-1.771-.8644-.59-.2794-1.189-.5675-1.796-.8643-1.702-.8382-2.9-1.6764-3.594-2.5146-.885-1.0652-1.328-2.436-1.328-4.1123 0-2.2177.755-4.0513 2.265-5.5006 1.545-1.4494 3.42-2.1741 5.625-2.1741 3.247 0 5.66 1.6851 7.239 5.0553z"/></g></svg>

<svg width="333" height="96" viewBox="0 0 333 96" fill="none" xmlns="http://www.w3.org/2000/svg">
<path opacity="0.88" d="M77.9039 45.4778C77.8744 45.1785 77.7357 44.9005 77.5142 44.6969C77.2927 44.4932 77.0039 44.3782 76.7029 44.3738H46.7744C45.9617 44.3936 45.1683 44.6256 44.473 45.0466C43.7778 45.4676 43.2048 46.0631 42.8111 46.7738C42.4466 47.4094 42.2549 48.1292 42.2549 48.8618C42.2549 49.5943 42.4466 50.3142 42.8111 50.9498C42.9152 51.1497 43.0696 51.319 43.2591 51.441C43.4487 51.5631 43.6667 51.6337 43.8919 51.6458H76.775C77.076 51.6413 77.3648 51.5263 77.5863 51.3227C77.8078 51.1191 77.9465 50.8411 77.976 50.5418C77.976 49.6058 77.976 48.8138 77.976 48.1418C77.976 47.4698 77.9759 46.3898 77.9039 45.4778Z" fill="white"/>
<path opacity="0.72" d="M51.4088 51.5499H43.8187C43.6035 51.5345 43.3949 51.4676 43.2109 51.3548C43.027 51.2421 42.8729 51.0867 42.7617 50.9019L56.7173 75.5979C56.8241 75.7828 56.9784 75.9359 57.1642 76.0414C57.3499 76.1468 57.5604 76.2009 57.774 76.1979C57.9092 76.2207 58.0473 76.2207 58.1825 76.1979C59.7696 75.6269 61.3047 74.9203 62.7703 74.0859C62.9077 74.0088 63.028 73.905 63.1245 73.7805C63.221 73.6561 63.2915 73.5135 63.3318 73.3613C63.3721 73.2091 63.3816 73.0504 63.3594 72.8945C63.3372 72.7386 63.2838 72.5888 63.2025 72.4539L51.4088 51.5499Z" fill="white"/>
<path d="M57.691 76.4139C57.7028 76.414 57.7147 76.4141 57.7265 76.4139C57.8536 76.4368 57.9838 76.4368 58.1109 76.4139L58.8794 76.1019L59.5761 75.8139C60.6386 75.373 61.6734 74.8681 62.6747 74.3019C67.3578 71.666 71.249 67.8251 73.9439 63.1783C76.6388 58.5315 78.0392 53.2484 77.9993 47.8779C77.9993 46.9899 77.9512 46.2939 77.8791 45.4779C77.8553 45.1807 77.7217 44.9029 77.5041 44.6988C77.2865 44.4947 77.0005 44.3789 76.7021 44.3739H71.8982C71.7297 44.3758 71.5634 44.4131 71.4103 44.4834C71.2572 44.5537 71.1207 44.6554 71.0095 44.7819C70.8975 44.9035 70.8136 45.0483 70.7638 45.2059C70.714 45.3635 70.6995 45.5301 70.7213 45.6939V48.0939C70.7152 51.9236 69.7439 55.69 67.8968 59.0457C66.0497 62.4013 63.3862 65.238 60.1525 67.2939C60.0247 67.376 59.9004 67.4651 59.7755 67.5545C59.7044 67.6054 59.633 67.6565 59.5608 67.7065C59.4421 67.7302 59.3266 67.7696 59.2176 67.824C55.7926 69.7713 51.9172 70.789 47.9766 70.776C41.9286 70.7633 36.1319 68.3571 31.8553 64.084C27.5787 59.8109 25.1705 54.019 25.1578 47.976C25.1705 41.933 27.5787 36.1411 31.8553 31.868C36.1319 27.5949 41.9286 25.1887 47.9766 25.176C51.9154 25.1773 55.7871 26.194 59.2176 28.128C59.3969 28.2417 59.6058 28.3002 59.8181 28.296H60.0823C60.247 28.2597 60.4024 28.1898 60.5388 28.0907C60.6752 27.9915 60.7898 27.8654 60.8751 27.72L63.2771 23.544C63.4359 23.2663 63.4796 22.9374 63.3988 22.6279C63.318 22.3184 63.1189 22.0528 62.8446 21.888C58.3234 19.3352 53.2178 17.9957 48.0246 18C40.0655 18.0127 32.436 21.1775 26.808 26.8008C21.18 32.4242 18.0127 40.0474 18 48C18.0127 55.9526 21.18 63.5758 26.808 69.1992C32.436 74.8225 40.0655 77.9873 48.0246 78C51.3246 78.0027 54.5892 77.4629 57.691 76.4139Z" fill="white"/>
<path d="M115.574 33.9529V67.9215H109.601V33.9529H100.5V28.3384H124.65V33.9529H115.574Z" fill="white"/>
<path d="M145.082 42.9514H150.876V67.9215H145.082V65.3066C142.707 67.5284 140.151 68.6394 137.417 68.6394C133.964 68.6394 131.11 67.3917 128.854 64.8964C126.615 62.3498 125.496 59.1709 125.496 55.3595C125.496 51.6166 126.615 48.4974 128.854 46.0021C131.093 43.5068 133.896 42.2592 137.263 42.2592C140.169 42.2592 142.775 43.4555 145.082 45.8483V42.9514ZM131.392 55.3595C131.392 57.7523 132.033 59.7007 133.315 61.2047C134.631 62.7258 136.289 63.4864 138.289 63.4864C140.425 63.4864 142.151 62.7515 143.467 61.2816C144.783 59.7605 145.441 57.8292 145.441 55.4877C145.441 53.1462 144.783 51.2149 143.467 49.6938C142.151 48.2069 140.442 47.4634 138.34 47.4634C136.357 47.4634 134.699 48.2154 133.366 49.7195C132.05 51.2406 131.392 53.1206 131.392 55.3595Z" fill="white"/>
<path d="M163.925 42.9514V67.9215H158.157V42.9514H163.925ZM157.285 32.5685C157.285 31.5601 157.653 30.6885 158.388 29.9535C159.123 29.2186 160.003 28.8512 161.028 28.8512C162.071 28.8512 162.96 29.2186 163.695 29.9535C164.429 30.6714 164.797 31.5516 164.797 32.5941C164.797 33.6367 164.429 34.5254 163.695 35.2603C162.977 35.9953 162.097 36.3627 161.054 36.3627C160.011 36.3627 159.123 35.9953 158.388 35.2603C157.653 34.5254 157.285 33.6281 157.285 32.5685Z" fill="white"/>
<path d="M177 24.6211V67.9215H171.232V24.6211H177Z" fill="white"/>
<path d="M210.931 47.8021H227.545V49.138C227.545 52.1764 227.189 54.8656 226.478 57.2055C225.783 59.3708 224.611 61.3964 222.962 63.2823C219.23 67.5082 214.482 69.6211 208.718 69.6211C203.093 69.6211 198.276 67.578 194.265 63.4919C190.255 59.3883 188.25 54.4639 188.25 48.7189C188.25 42.8516 190.29 37.8749 194.37 33.7887C198.449 29.6851 203.414 27.6333 209.265 27.6333C212.407 27.6333 215.341 28.2794 218.067 29.5716C220.671 30.8638 223.231 32.9593 225.748 35.858L221.426 40.0227C218.127 35.6048 214.108 33.3958 209.369 33.3958C205.116 33.3958 201.548 34.8714 198.666 37.8225C195.784 40.7212 194.344 44.3533 194.344 48.7189C194.344 53.2241 195.949 56.9348 199.161 59.851C202.164 62.5576 205.419 63.911 208.926 63.911C211.912 63.911 214.594 62.8982 216.973 60.8725C219.351 58.8295 220.679 56.3848 220.957 53.5384H210.931V47.8021Z" fill="white"/>
<path d="M234.081 43.3493H239.941V45.6281C241.017 44.493 241.972 43.716 242.805 43.2969C243.656 42.8603 244.663 42.642 245.826 42.642C247.371 42.642 248.985 43.1485 250.669 44.1613L247.987 49.5571C246.876 48.7538 245.791 48.3522 244.732 48.3522C241.538 48.3522 239.941 50.7794 239.941 55.6339V68.8615H234.081V43.3493Z" fill="white"/>
<path d="M260.721 43.3493V68.8615H254.862V43.3493H260.721ZM253.977 32.741C253.977 31.7107 254.35 30.8202 255.096 30.0693C255.843 29.3184 256.737 28.943 257.778 28.943C258.837 28.943 259.74 29.3184 260.487 30.0693C261.233 30.8027 261.606 31.702 261.606 32.7672C261.606 33.8324 261.233 34.7404 260.487 35.4913C259.758 36.2422 258.863 36.6176 257.804 36.6176C256.745 36.6176 255.843 36.2422 255.096 35.4913C254.35 34.7404 253.977 33.8237 253.977 32.741Z" fill="white"/>
<path d="M286.84 24.6211H292.725V68.8615H286.84V66.1898C284.531 68.4599 281.918 69.5949 279.002 69.5949C275.529 69.5949 272.648 68.3202 270.356 65.7707C268.082 63.1688 266.945 59.9209 266.945 56.0268C266.945 52.22 268.082 49.0419 270.356 46.4925C272.613 43.9255 275.451 42.642 278.871 42.642C281.84 42.642 284.496 43.8644 286.84 46.3091V24.6211ZM272.934 56.0268C272.934 58.4715 273.585 60.4622 274.887 61.9989C276.224 63.553 277.908 64.3301 279.939 64.3301C282.109 64.3301 283.862 63.5792 285.199 62.0774C286.536 60.5233 287.204 58.5501 287.204 56.1578C287.204 53.7654 286.536 51.7922 285.199 50.2381C283.862 48.7189 282.126 47.9593 279.991 47.9593C277.977 47.9593 276.293 48.7276 274.939 50.2643C273.602 51.8184 272.934 53.7393 272.934 56.0268Z" fill="white"/>
<path d="M314.859 47.6973L310.016 50.2905C309.252 48.7189 308.306 47.9331 307.177 47.9331C306.639 47.9331 306.179 48.1164 305.797 48.4831C305.415 48.8324 305.224 49.2864 305.224 49.8452C305.224 50.8231 306.353 51.7922 308.61 52.7526C311.717 54.0972 313.809 55.337 314.885 56.4721C315.962 57.6071 316.5 59.1351 316.5 61.0559C316.5 63.5181 315.597 65.5786 313.792 67.2375C312.038 68.8091 309.92 69.5949 307.438 69.5949C303.185 69.5949 300.173 67.5082 298.402 63.3347L303.402 61.0035C304.096 62.2259 304.626 63.0029 304.99 63.3347C305.702 63.9983 306.553 64.3301 307.542 64.3301C309.521 64.3301 310.511 63.422 310.511 61.606C310.511 60.5582 309.747 59.5803 308.219 58.6723C307.629 58.3755 307.039 58.0873 306.448 57.8079C305.858 57.5285 305.259 57.2404 304.652 56.9436C302.95 56.1054 301.752 55.2672 301.058 54.429C300.173 53.3638 299.73 51.993 299.73 50.3167C299.73 48.099 300.485 46.2654 301.995 44.8161C303.54 43.3667 305.415 42.642 307.62 42.642C310.867 42.642 313.28 44.3271 314.859 47.6973Z" fill="white"/>
</svg>
